Origami/64x64/apps/qv4l2.svg

<svg width="64" height="64" version="1" xmlns="http://www.w3.org/2000/svg">
 <path d="m32 3c-15.512 0-28 12.488-28 28s12.488 28 28 28 28-12.488 28-28-12.488-28-28-28z" style="fill:#c4c4c4"/>
 <path d="m32 3c-15.512 0-28 12.488-28 28 0 0.113448 0.0112808 0.224113 0.0175781 0.335938 0.3515432-15.201757 12.69315-27.335938 27.982422-27.335938h0.001953c15.289273 0 27.630879 12.134181 27.982422 27.335938 0.006271-0.111825 0.017578-0.22249 0.017578-0.335938 0-15.512-12.488-28-28-28h-0.001953z" style="fill:#ffffff;opacity:.2"/>
 <path d="M 17.362,32.334 A 14.6666,14.5578 0 0 1 17.3334,31.558 14.6666,14.5578 0 0 1 32,17 14.6666,14.5578 0 0 1 46.666,31.558 14.6666,14.5578 0 0 1 46.638,32.106 14.6666,14.5578 0 0 0 32,18.3234 14.6666,14.5578 0 0 0 17.362,32.334 Z" style="opacity:.2"/>
 <circle cx="32" cy="31" r="18" style="fill:#3f3f3f"/>
 <circle transform="scale(1,-1)" cx="32" cy="-32" r="14" style="opacity:.2"/>
 <circle transform="scale(1,-1)" cx="32" cy="-31" r="14" style="fill:#ba174e"/>
 <path d="M 59.982422,31.664062 C 59.630879,46.865819 47.289272,59 32,59 16.712037,59 4.3711461,46.867898 4.0175781,31.667969 4.0114012,31.778588 4,31.887761 4,32 4,47.512 16.488,60 32,60 47.512,60 60,47.512 60,32 c 0,-0.113448 -0.01128,-0.224113 -0.01758,-0.335938 z" style="opacity:.2"/>
 <circle cx="32" cy="32" r="8" style="opacity:.2"/>
 <circle cx="32" cy="31" r="8" style="fill:#d67495"/>
 <circle cx="48" cy="45" r="16" style="fill:#55cc98"/>
 <path d="m45.982 37-0.17794 2.107047a6.3424 6.2853443 0 0 0 -1.8536 1.062443l-1.93242-0.901734-2.018 3.463948 1.75448 1.207513a6.3424 6.2853443 0 0 0 -0.09686 1.060183 6.3424 6.2853443 0 0 0 0.0923 1.064663l-1.75 1.203913 2.018 3.463948 1.92792-0.899494a6.3424 6.2853443 0 0 0 1.85808 1.055723l0.178 2.111847h4.036l0.17792-2.107047a6.3424 6.2853443 0 0 0 1.8536 -1.062443l1.93242 0.901734 2.018-3.463948-1.7545-1.207513a6.3424 6.2853443 0 0 0 0.09686 -1.060183 6.3424 6.2853443 0 0 0 -0.0923 -1.064663l1.75-1.203053-2.018-3.463948-1.92794 0.899494a6.3424 6.2853443 0 0 0 -1.85808 -1.055723l-0.17792-2.111447h-4.036zm2.018 5.713586a2.3062 2.2856343 0 0 1 2.306 2.285834 2.3062 2.2856343 0 0 1 -2.306 2.285834 2.3062 2.2856343 0 0 1 -2.306 -2.285834 2.3062 2.2856343 0 0 1 2.306 -2.285834z" style="fill:#ffffff"/>
 <path d="M 32.025391,45.501953 A 16,16 0 0 0 32,46 16,16 0 0 0 48,62 16,16 0 0 0 64,46 16,16 0 0 0 63.982422,45.507812 16,16 0 0 1 48,61 16,16 0 0 1 32.025391,45.501953 Z" style="opacity:.2"/>
</svg>

<svg xmlns="http://www.w3.org/2000/svg" width="64" height="64" version="1">
 <path style="fill:#c4c4c4" d="M 32,3 C 16.488,3 4,15.488 4,31 4,46.512 16.488,59 32,59 47.512,59 60,46.512 60,31 60,15.488 47.512,3 32,3 Z"/>
 <path style="opacity:0.2;fill:#ffffff" d="M 32 3 C 16.488 3 4 15.488 4 31 C 4 31.113448 4.0112808 31.224113 4.0175781 31.335938 C 4.3691213 16.134181 16.710728 4 32 4 L 32.001953 4 C 47.291226 4 59.632832 16.134181 59.984375 31.335938 C 59.990646 31.224113 60.001953 31.113448 60.001953 31 C 60.001953 15.488 47.513953 3 32.001953 3 L 32 3 z"/>
 <path style="opacity:0.2" d="M 17.362,32.334 A 14.6666,14.5578 0 0 1 17.3334,31.558 14.6666,14.5578 0 0 1 32,17 14.6666,14.5578 0 0 1 46.666,31.558 14.6666,14.5578 0 0 1 46.638,32.106 14.6666,14.5578 0 0 0 32,18.3234 14.6666,14.5578 0 0 0 17.362,32.334 Z"/>
 <circle style="fill:#3f3f3f" cx="32" cy="31" r="18"/>
 <circle style="opacity:0.2" cx="32" cy="-32" r="14" transform="scale(1,-1)"/>
 <circle style="fill:#ba174e" cx="32" cy="-31" r="14" transform="scale(1,-1)"/>
 <path style="opacity:0.2" d="M 59.982422,31.664062 C 59.630879,46.865819 47.289272,59 32,59 16.712037,59 4.3711461,46.867898 4.0175781,31.667969 4.0114012,31.778588 4,31.887761 4,32 4,47.512 16.488,60 32,60 47.512,60 60,47.512 60,32 c 0,-0.113448 -0.01128,-0.224113 -0.01758,-0.335938 z"/>
 <circle style="opacity:0.2" cx="32" cy="32" r="8"/>
 <circle style="fill:#d67495" cx="32" cy="31" r="8"/>
 <circle style="fill:#55cc98" cx="48" cy="45" r="16"/>
 <path style="fill:#ffffff" d="m 45.982,37 -0.17794,2.107047 a 6.3424,6.2853443 0 0 0 -1.8536,1.062443 l -1.93242,-0.901734 -2.018,3.463948 1.75448,1.207513 a 6.3424,6.2853443 0 0 0 -0.09686,1.060183 6.3424,6.2853443 0 0 0 0.0923,1.064663 l -1.75,1.203913 2.018,3.463948 1.92792,-0.899494 a 6.3424,6.2853443 0 0 0 1.85808,1.055723 L 45.98196,53 l 4.036,0 0.17792,-2.107047 a 6.3424,6.2853443 0 0 0 1.8536,-1.062443 l 1.93242,0.901734 2.018,-3.463948 -1.7545,-1.207513 a 6.3424,6.2853443 0 0 0 0.09686,-1.060183 6.3424,6.2853443 0 0 0 -0.0923,-1.064663 l 1.75,-1.203053 -2.018,-3.463948 -1.92794,0.899494 a 6.3424,6.2853443 0 0 0 -1.85808,-1.055723 l -0.17792,-2.111447 -4.036,0 z M 48,42.713586 A 2.3062,2.2856343 0 0 1 50.306,44.99942 2.3062,2.2856343 0 0 1 48,47.285254 2.3062,2.2856343 0 0 1 45.694,44.99942 2.3062,2.2856343 0 0 1 48,42.713586 Z"/>
 <path style="opacity:0.2" d="M 32.025391,45.501953 A 16,16 0 0 0 32,46 16,16 0 0 0 48,62 16,16 0 0 0 64,46 16,16 0 0 0 63.982422,45.507812 16,16 0 0 1 48,61 16,16 0 0 1 32.025391,45.501953 Z"/>
</svg>
